packages/core/src/svgs/tokens/mono/CAH.svg

<svg width="24" height="24" viewBox="0 0 24 24" fill="none" xmlns="http://www.w3.org/2000/svg">
<path fill-rule="evenodd" clip-rule="evenodd" d="M22 12C22 17.5229 17.5229 22 12 22C11.161 22 10.3461 21.8966 9.56732 21.702C12.5636 17.5351 12.4707 14.7956 12.4354 13.7539L12.4295 13.5174C13.0001 14.0763 13.1177 14.7938 13.1 15.088C13.3333 15.3136 13.5686 15.5372 13.8059 15.7586C13.8589 15.8057 13.9 15.5998 13.9176 15.4938C13.9059 15.5703 13.9176 15.7703 14.047 15.935C14.3765 16.4115 14.7118 17.188 14.8412 17.5174L15.0471 17.3292V17.6056C15.2707 17.9997 15.7353 18.8644 15.8176 19.1645C15.8606 19.3603 15.9449 19.5448 16.0647 19.7056L15.9 19.8585C15.9471 20.1645 16.0294 20.7644 16.053 21.1409C16.3058 21.0292 16.5529 20.9057 16.7883 20.7762C17.2706 20.2821 17.6765 19.6527 17.853 19.3057L18.0118 19.4527C18.1118 19.3351 18.3118 18.9233 18.3118 18.2174C18.3118 17.5056 18.0059 16.8233 17.853 16.5703H18.0118C18.0236 15.5939 17.2765 14.7527 16.9059 14.4469H17.1177C16.1943 12.9292 14.0768 13.0115 13.4707 13.0351L13.3529 13.041C13.7706 12.7821 15.2177 12.5939 15.8883 12.535L16.2118 12.4762H17.7882L18.0707 12.2821L18.1176 12.3997H19.8588L19.9883 12.4762H20.8707C21.1471 12.1763 21.7354 11.5174 21.9647 11.1644L21.9634 11.1377C21.9876 11.4219 22 11.7095 22 12ZM21.9553 11.0487C21.3084 10.3101 20.3757 9.91718 19.9824 9.8115V9.57624C18.6471 8.93504 17.5177 8.97033 17.1236 9.06445V8.88211C15.7765 8.88211 14.9058 9.42911 14.6353 9.70568C14.6235 9.6645 14.5882 9.56444 14.5177 9.51736C14.0707 9.6527 13.3941 10.3586 13.1118 10.6939C13.1471 10.5704 13.2118 10.2115 13.2118 9.79393C13.2118 9.37626 13.0471 9.13504 12.9648 9.06445L12.9708 9.05613C13.0198 8.98877 13.1118 8.86252 13.1118 8.81739C12.9765 8.0174 12.3353 7.05269 12.0294 6.66445H11.8353C11.7707 5.99387 10.4412 5.06446 9.7824 4.68798V4.92328C9.45889 4.72916 8.55886 4.3527 7.50591 4.3527C6.35245 4.37911 5.24299 4.79993 4.36224 5.54484C6.19658 3.37664 8.93752 2 12 2C17.202 2 21.4762 5.97203 21.9553 11.0487ZM4.35558 5.55272C2.88586 7.29356 2 9.5433 2 12C2 15.7575 4.07247 19.031 7.13668 20.7399C9.36377 18.9086 10.9347 16.4025 11.6117 13.5997C11.6117 13.4527 11.7295 13.2939 11.7941 13.2291C11.4882 13.1998 10.6412 13.435 9.69415 14.5821L9.57652 14.7292C9.49417 14.635 9.33536 14.3939 9.35293 14.1291C9.15815 14.3776 9.02872 14.6707 8.9765 14.9822C8.80003 15.0998 8.11768 15.6056 7.99415 15.9056C7.88576 15.6898 7.79525 15.4656 7.72357 15.235C7.69415 15.3939 7.64709 15.7645 7.65298 15.9821L6.50591 16.7468C6.45131 16.5458 6.43533 16.3362 6.45886 16.1292C6.3412 16.3056 6.29415 16.6821 6.28826 16.8468C5.90004 16.9998 5.05886 17.3939 4.7765 17.7526C4.51809 17.3766 4.38999 16.9261 4.4118 16.4703C4.4118 15.8233 4.49415 14.7645 5.85298 13.2291C6.46767 12.5353 7.26762 12.0312 8.15886 11.7762C8.15886 11.6703 8.20592 11.4938 8.22945 11.4233L7.72357 11.7762L6.70592 11.6469L6.12945 12.0586L5.5118 11.982L4.98238 12.4527L3.79415 12.5116L3.58827 12.6409L2.58239 12.5585C3.00591 11.5056 4.46474 9.40564 6.93532 9.40564C7.92452 9.39946 8.89878 9.64707 9.76497 10.125C10.631 10.6028 11.3601 11.2949 11.8824 12.1351C11.6959 11.5754 11.4389 11.0417 11.1176 10.5468L11.2766 10.3174H11.0295C10.779 9.7507 10.3653 9.27154 9.84115 8.94092V8.49974L9.69415 8.62916C9.14627 8.14864 8.51937 7.76653 7.84121 7.49974V7.05269L7.62944 7.22916C7.24886 6.94924 6.79522 6.78577 6.32357 6.75857C6.32357 6.54047 6.24515 6.14876 6.20856 5.96594L6.20591 5.95269L6.05886 6.17034C5.57749 5.77735 4.97691 5.55959 4.35558 5.55272Z" fill="white"/>
</svg>

<svg xmlns="http://www.w3.org/2000/svg" width="24" height="24" fill="none" viewBox="0 0 24 24">
    <path fill="#fff" fill-rule="evenodd" d="M22 12c0 5.523-4.477 10-10 10-.839 0-1.654-.103-2.433-.298 2.997-4.167 2.904-6.906 2.868-7.948l-.005-.237c.57.56.688 1.277.67 1.571q.35.34.706.67c.053.048.094-.158.112-.264a.63.63 0 0 0 .129.441c.33.476.665 1.253.794 1.582l.206-.188v.277c.224.394.688 1.258.77 1.558.044.196.128.38.248.542l-.165.152c.047.306.13.906.153 1.283q.381-.169.735-.365a6.7 6.7 0 0 0 1.065-1.47l.159.147c.1-.118.3-.53.3-1.236 0-.711-.306-1.394-.459-1.647h.159c.012-.976-.736-1.817-1.106-2.123h.212c-.924-1.518-3.041-1.435-3.647-1.412l-.118.006c.418-.259 1.865-.447 2.535-.506l.324-.059h1.576l.283-.194.047.118h1.74l.13.076h.883c.276-.3.864-.959 1.094-1.312l-.002-.026Q22 11.564 22 12m-.045-.951c-.647-.739-1.58-1.132-1.973-1.237v-.236c-1.335-.641-2.464-.606-2.858-.512v-.182c-1.347 0-2.218.547-2.489.824-.011-.041-.047-.142-.117-.189-.447.136-1.124.842-1.406 1.177.035-.124.1-.483.1-.9s-.165-.659-.247-.73l.006-.008c.049-.067.14-.193.14-.239-.135-.8-.776-1.764-1.082-2.153h-.194c-.064-.67-1.394-1.6-2.053-1.976v.235c-.323-.194-1.223-.57-2.276-.57a5.05 5.05 0 0 0-3.144 1.192A9.98 9.98 0 0 1 12 2c5.202 0 9.476 3.972 9.955 9.049m-17.6-5.496A9.96 9.96 0 0 0 2 12a10 10 0 0 0 5.137 8.74 13.3 13.3 0 0 0 4.475-7.14c0-.147.117-.306.182-.37-.306-.03-1.153.205-2.1 1.352l-.117.147c-.083-.094-.242-.335-.224-.6a1.9 1.9 0 0 0-.377.853c-.176.118-.858.624-.982.924a4.4 4.4 0 0 1-.27-.671c-.03.159-.077.53-.071.747l-1.147.765a1.7 1.7 0 0 1-.047-.618c-.118.177-.165.553-.17.718-.389.153-1.23.547-1.512.906a2.1 2.1 0 0 1-.365-1.283c0-.647.082-1.705 1.441-3.24a4.87 4.87 0 0 1 2.306-1.454c0-.106.047-.282.07-.353l-.505.353-1.018-.13-.577.413-.617-.077-.53.47-1.188.06-.206.129-1.006-.082c.424-1.053 1.883-3.153 4.353-3.153a5.78 5.78 0 0 1 4.947 2.73 7 7 0 0 0-.764-1.59l.159-.229h-.247a3.1 3.1 0 0 0-1.19-1.376V8.5l-.147.13A6.3 6.3 0 0 0 7.841 7.5v-.447l-.212.176a2.44 2.44 0 0 0-1.305-.47c0-.219-.079-.61-.115-.793l-.003-.013-.147.217a2.74 2.74 0 0 0-1.703-.617" clip-rule="evenodd"/>
</svg>
